packages/kaspersky-hexa-ui-icons/src/iconsSVGs/24/HeartSolid.svg

<svg width="24" height="24" viewBox="0 0 24 24" fill="none" xmlns="http://www.w3.org/2000/svg">
<path fill-rule="evenodd" clip-rule="evenodd" d="M11.8406 21.002C11.6852 20.9827 11.5321 20.9264 11.3946 20.8309C11.0811 20.6132 8.90182 19.0786 6.73625 16.9905C5.65377 15.9468 4.55232 14.7435 3.68706 13.4779C2.83059 12.2251 2.14957 10.8308 2.01904 9.41595C1.90606 8.1913 2.01941 6.96323 2.54356 5.8829C3.07985 4.77753 4.0041 3.91525 5.33889 3.38131C7.75065 2.41656 9.66296 3.28735 10.9099 4.3824C11.3442 4.76385 11.7075 5.17847 12 5.56397C12.2996 5.16898 12.6738 4.74327 13.1227 4.35393C14.3708 3.27141 16.2716 2.4255 18.6611 3.38131C19.9958 3.91525 20.9201 4.77753 21.4564 5.88289C21.9805 6.96322 22.0939 8.19129 21.9809 9.41595C21.8493 10.842 21.1584 12.2476 20.2916 13.5089C19.4156 14.7835 18.3016 15.9942 17.2105 17.0416C15.0277 19.1371 12.8462 20.6642 12.5911 20.8408C12.3633 20.9985 12.0931 21.0486 11.8406 21.002Z" fill="black"/>
</svg>

<svg xmlns="http://www.w3.org/2000/svg" width="24" height="24" fill="none" viewBox="0 0 24 24"><path fill="#000" fill-rule="evenodd" d="M11.8406 21.002a.995.995 0 0 1-.446-.1711c-.3135-.2177-2.4928-1.7523-4.6584-3.8404-1.0824-1.0437-2.1839-2.247-3.0491-3.5126-.8565-1.2528-1.5375-2.6471-1.668-4.062-.113-1.2246.0003-2.4527.5245-3.533.5362-1.1054 1.4605-1.9677 2.7953-2.5016 2.4118-.9647 4.324-.094 5.571 1.0011.4343.3815.7976.796 1.0901 1.1816.2996-.395.6738-.8207 1.1227-1.21 1.2481-1.0826 3.1489-1.9285 5.5384-.9727 1.3347.534 2.259 1.3962 2.7953 2.5016.5241 1.0803.6375 2.3084.5245 3.533-.1316 1.4261-.8225 2.8317-1.6893 4.093-.876 1.2746-1.99 2.4853-3.0811 3.5327-2.1828 2.0955-4.3643 3.6226-4.6194 3.7992a.997.997 0 0 1-.7505.1612"/></svg>
